icons/modus-outlined/link.svg

<svg xmlns="http://www.w3.org/2000/svg" width="24" height="24" fill="currentColor" viewBox="0 0 24 24">
  <path d="M5.87981 17.25C5.03981 16.01 5.29981 14.32 6.35981 13.26L8.42981 11.19C8.79981 10.82 8.79981 10.22 8.42981 9.85C8.05981 9.48 7.45981 9.48 7.08981 9.85L5.08981 11.85C3.23981 13.7 2.93981 16.69 4.59981 18.71C6.50981 21.02 9.93981 21.14 11.9998 19.08L14.1598 16.92C14.5298 16.55 14.5298 15.95 14.1598 15.58C13.7898 15.21 13.1898 15.21 12.8198 15.58L10.6598 17.74C9.30981 19.09 7.00981 18.92 5.87981 17.25ZM10.5898 14.83L14.8298 10.59C15.2198 10.2 15.2198 9.57 14.8298 9.18C14.4398 8.79 13.8098 8.79 13.4198 9.18L9.17981 13.42C8.78981 13.81 8.78981 14.44 9.17981 14.83C9.56981 15.22 10.1998 15.22 10.5898 14.83ZM11.8498 5.08L9.84981 7.08C9.47981 7.45 9.47981 8.05 9.84981 8.42C10.2198 8.79 10.8198 8.79 11.1898 8.42L13.2598 6.35C14.3198 5.29 16.0098 5.03 17.2498 5.87C18.9198 7 19.0798 9.3 17.7298 10.65L15.5698 12.81C15.1998 13.18 15.1998 13.78 15.5698 14.15C15.9398 14.52 16.5398 14.52 16.9098 14.15L19.0698 11.99C21.1398 9.92 21.0098 6.49 18.6998 4.59C16.6898 2.93 13.6998 3.23 11.8498 5.08Z"/>
</svg>

<svg xmlns="http://www.w3.org/2000/svg" width="24" height="24" fill="currentColor" viewBox="0 0 24 24">
  <path d="m5.88,17.25c-.84-1.24-.58-2.93.48-3.99l2.07-2.07c.37-.37.37-.97,0-1.34h0c-.37-.37-.97-.37-1.34,0l-2,2c-1.85,1.85-2.15,4.84-.49,6.86,1.91,2.31,5.34,2.43,7.4.37l2.16-2.16c.37-.37.37-.97,0-1.34h0c-.37-.37-.97-.37-1.34,0l-2.16,2.16c-1.35,1.35-3.65,1.19-4.78-.48Zm4.71-2.42l4.24-4.24c.39-.39.39-1.02,0-1.41h0c-.39-.39-1.02-.39-1.41,0l-4.24,4.24c-.39.39-.39,1.02,0,1.41h0c.39.39,1.02.39,1.41,0Zm1.26-9.75l-2,2c-.37.37-.37.97,0,1.34h0c.37.37.97.37,1.34,0l2.07-2.07c1.06-1.06,2.75-1.32,3.99-.48,1.67,1.13,1.83,3.43.48,4.78l-2.16,2.16c-.37.37-.37.97,0,1.34h0c.37.37.97.37,1.34,0l2.16-2.16c2.07-2.07,1.94-5.5-.37-7.4-2.01-1.66-5.01-1.36-6.86.49Z"/>
</svg>
